X:1
T:Asklåten
C:Erik Johansson
R:Gånglåt
O:Oppeby, Östergötland
H:Skriven till och framförs av Lavalåt.
Q:90
Z:Jörgen Olsson
M:2/4
L:1/8
K:Dm
|:"Dm"f2 e/d/c/A/ |"Dm"ce/c/ d=B| "F" cc "G" =B/A/G | "D" AE ^F2 |
"Bb" zf e/d/c/A/ |"Am7"ce/c/ "Bm7/D"d=B| "F" c>=B  "A7" A^F |1 "D" D4 :|2 "D" D3d ||
K:D
|:"D" f3/2 e3/2 d |f3/2 e3/2 d| "C" =c3/2 e3/2 g| "D" f3/2 d3/2 e |
"D" f3/2 e3/2 d |f3/2 e3/2 d| "C"=cc  B/A/G  |1 "D" A3  d:|2 "D" A2 D2|]

